packages/calcite-ui-icons/icons/layer-3d-24.svg

<?xml version="1.0" encoding="UTF-8"?><svg id="icons" xmlns="http://www.w3.org/2000/svg" viewBox="0 0 24 24"><defs><style>.cls-1{fill:none;}</style></defs><rect class="cls-1" width="24" height="24"/><path d="M20.83057,3.07794s-2.03394-.87793-4.51978-.87793c-3.84814,0-3.89209,1.59998-7.74023,1.59998-2.48584,0-4.51978-.72205-4.51978-.72205L1,20.78302s2.03394,1.01697,5.42383,1.01697c5.24194,0,6.79175-1.63391,12.03369-1.63391,3.38989,0,5.42383,1.01697,5.42383,1.01697l-3.05078-18.1051ZM12.20679,20.01074c-1.68701.40588-3.28052.78925-5.78296.78925-1.99878,0-3.49316-.38092-4.30005-.65027l2.72363-15.80664c.89062.21466,2.22729.45691,3.72314.45691,2.12158,0,3.25244-.4649,4.25024-.87506.94629-.38898,1.76343-.72491,3.48999-.72491,1.55054,0,2.92725.38007,3.62988.61499l2.67432,15.87152c-1.00342-.26648-2.4165-.52045-4.15747-.52045-2.7395,0-4.52441.42944-6.25073.84467ZM9,14h1v1h-.29297l-1.14648,1.14648-.70703-.70703,1.14648-1.14648v-.29297ZM9.28809,6l-3.28809,3.42383v8.57617h8.57324l3.42676-3.28613V6h-8.71191ZM14.29297,9h-6.48438l1.19141-1.22321v.22321h1v-1h6.28589l-1.99292,2ZM7,10h2v2h1v-2h4v4h-2v1h2v2h-7v-7ZM16,14v1h.25195l-1.25195,1.19495v-6.48792l2-2v6.29297h-1Z"/></svg>

<svg xmlns="http://www.w3.org/2000/svg" viewBox="0 0 24 24"><path d="M0 0h24v24H0z" style="fill:none"/><path d="M20.83 3.078S18.798 2.2 16.31 2.2c-3.847 0-3.891 1.6-7.74 1.6-2.485 0-4.52-.722-4.52-.722L1 20.783S3.034 21.8 6.424 21.8c5.242 0 6.792-1.634 12.034-1.634 3.39 0 5.423 1.017 5.423 1.017zM12.208 20.01c-1.687.406-3.28.789-5.783.789-1.999 0-3.493-.38-4.3-.65L4.847 4.343c.891.215 2.228.457 3.724.457 2.121 0 3.252-.465 4.25-.875.946-.39 1.763-.725 3.49-.725 1.55 0 2.927.38 3.63.615l2.674 15.872a16.3 16.3 0 0 0-4.157-.52c-2.74 0-4.525.429-6.251.844M9 14h1v1h-.293l-1.146 1.146-.707-.707L9 14.293zm.288-8L6 9.424V18h8.573L18 14.714V6zm5.005 3H7.809L9 7.777V8h1V7h6.286zM7 10h2v2h1v-2h4v4h-2v1h2v2H7zm9 4v1h.252L15 16.195V9.707l2-2V14z"/></svg>
